X:1
T:Drizzling Dawn
M:4/4
L:1/8
K:Dm
A,2D2F2A2|D2F2A2d2|c2A2F2D2|C2A,2D2A,2|
D2F2A2d2|c2A2F2D2|C2A,2D2F2|D4D4||